X: 1
T: Garry Porch of Avernish
C: Adam Sutherland
R: strathspey
Z: 2013 John Chambers <jc:trillian.mit.edu>
M: C
B: Christine Martin "Ho-Ro-Gheallaidh" "Session Tunes for Scottish Fiddlers" v.3 2008
L: 1/8
K: Bm
[|\
"Bm"F<B B>A B<d B>A | "G"G<B B>A B<e B>A |\
"Bm"F<BB>A B<d B>A | "Em"B<E E<D "F#m"E<F A>A |
"Bm"F<B B>A B<d B>A | "G"G<B B>A B<f e>d |\
"Bm"f<B B>A B<d d>f | "Em"e>d B>A "Bm"B<d d>A |]
[|\
"D"D<A F>D A<d A>F | "G"G<A A>G "A"A<e A>G |\
"D"F<A A>F A<d A>F | "G"G<A A>G "A"E2 (E>F) |
"D"D<A F>D A<d A>F | "G"G<A A>G "A"A<e A>G |\
"G"G<A A>G "A"A<e c>A | "A"A<e c>A "F#"^A<f c>B |]
